na_visualize/static/favicon.svg

<?xml version="1.0" encoding="UTF-8" standalone="no"?>
<svg
   viewBox="0 -64 640 640"
   version="1.1"
   id="svg11"
   width="640"
   height="640"
   xmlns="http://www.w3.org/2000/svg"
   xmlns:svg="http://www.w3.org/2000/svg">
  <defs
     id="defs15" />
  <!--! Font Awesome Pro 6.1.2 by @fontawesome - https://fontawesome.com License - https://fontawesome.com/license (Commercial License) Copyright 2022 Fonticons, Inc. -->
  <path
     d="m 320,93.68 v 84.62 l 77.1,44.1 C 350.6,254 320,307.4 320,368 c 0,54.2 24.5,102.7 63.1,134.1 -2.1,6.2 -7.2,9.9 -14,9.9 -0.4,0 -1.7,-0.2 -3,-0.5 L 256,480 145.9,511.5 c -1.3,0.3 -2.6,0.5 -3.9,0.5 -7.7,0 -14,-6.3 -14,-14.9 V 456 c 0,-5.9 2.4,-9.8 6.4,-12.8 L 192,400 V 329.1 L 20.4,378.2 C 10.17,381.1 0,373.4 0,362.8 v -65.5 c 0,-5.8 3.076,-11.1 8.062,-13.9 L 192,178.3 V 93.68 C 192,59.53 221,0 256,0 c 36,0 64,59.53 64,93.68 z M 352,368 c 0,-79.5 64.5,-144 144,-144 79.5,0 144,64.5 144,144 0,79.5 -64.5,144 -144,144 -79.5,0 -144,-64.5 -144,-144 z m 144,96 c 13.3,0 24,-10.7 24,-24 0,-13.3 -10.7,-24 -24,-24 -13.3,0 -24,10.7 -24,24 0,13.3 10.7,24 24,24 z M 479.1,288 v 80 c 0,8.8 8.1,16 16,16 9.7,0 16,-7.2 16,-16 v -80 c 0,-8.8 -6.3,-16 -16,-16 -7.9,0 -16,7.2 -16,16 z"
     id="path9" />
</svg>

<svg xmlns="http://www.w3.org/2000/svg" viewBox="0 0 640 512"><!--! Font Awesome Pro 6.1.2 by @fontawesome - https://fontawesome.com License - https://fontawesome.com/license (Commercial License) Copyright 2022 Fonticons, Inc. --><path d="M320 93.68V178.3L397.1 222.4C350.6 254 320 307.4 320 368C320 422.2 344.5 470.7 383.1 502.1C381 508.3 375.9 512 369.1 512C368.7 512 367.4 511.8 366.1 511.5L256 480L145.9 511.5C144.6 511.8 143.3 512 142 512C134.3 512 128 505.7 128 497.1V456C128 450.1 130.4 446.2 134.4 443.2L192 400V329.1L20.4 378.2C10.17 381.1 0 373.4 0 362.8V297.3C0 291.5 3.076 286.2 8.062 283.4L192 178.3V93.68C192 59.53 221 0 256 0C292 0 320 59.53 320 93.68H320zM352 368C352 288.5 416.5 224 496 224C575.5 224 640 288.5 640 368C640 447.5 575.5 512 496 512C416.5 512 352 447.5 352 368zM496 464C509.3 464 520 453.3 520 440C520 426.7 509.3 416 496 416C482.7 416 472 426.7 472 440C472 453.3 482.7 464 496 464zM479.1 288V368C479.1 376.8 487.2 384 495.1 384C504.8 384 511.1 376.8 511.1 368V288C511.1 279.2 504.8 272 495.1 272C487.2 272 479.1 279.2 479.1 288z"/></svg>
